svgs/light/lungs.svg

<svg xmlns="http://www.w3.org/2000/svg" viewBox="0 0 640 512"><!--! Font Awesome Pro 6.0.0-alpha3 by @fontawesome - https://fontawesome.com License - https://fontawesome.com/license (Commercial License) --><path d="M640 419.3c.1758 50.88-43.04 91.71-93.91 92.62c-21.71 .3906-24.04-1.607-90.87-19.45c-42.25-11.38-71.25-47.5-71.25-88.63l-.0938-60.05c0-12.77 14.22-20.39 24.85-13.33c4.465 2.965 7.148 7.969 7.148 13.33v60.04c0 26.38 19.5 50.13 47.5 57.63C527.9 478.8 529.5 480 541.9 480C578.4 480 608 453 608 419.8c0-7.25-1-14.38-2.875-21.38c-20.75-78.13-53.88-152.9-98.13-222C479.3 132.5 474.9 128 453.9 128s-38 15.12-38 33.75l.1191 104.4l88.6 56.38c7.453 4.75 9.656 14.62 4.906 22.09C506.5 349.4 501.3 352 495.1 352c-2.938 0-5.906-.8125-8.578-2.5L320 242.1L152.6 349.5C145.1 354.3 135.2 352 130.5 344.6c-4.75-7.469-2.547-17.34 4.906-22.09l88.62-56.39l.1035-104.4C224.1 143.1 207.1 128 186.1 128S160.8 132.5 133 176.4c-44.25 69.13-77.38 143.9-98.13 222C33 405.4 32 412.6 32 419.8C32 453 61.63 480 98.13 480c12.38 0 14-1.25 78.5-18.5c28-7.5 47.5-31.25 47.5-57.63V343.8c0-5.361 2.684-10.37 7.148-13.33c10.63-7.062 24.85 .5625 24.85 13.33l-.0938 60.05c0 41.13-29 77.25-71.25 88.63c-66.83 17.85-69.17 19.85-90.87 19.45C43.04 511-.1758 470.2 0 419.3c.0352-9.859 1.287-19.59 3.875-29.21c21.75-81.25 56.03-159.1 102-231c22.13-34.63 35.1-63.13 80.12-63.13c38.2 0 69.29 28.77 69.97 64.59v85.17l48-30.54V16C304 7.156 311.2 0 320 0s16 7.156 16 16v199.2L384 245.8V160.6c.6777-35.82 31.77-64.59 69.97-64.59c44 0 58 28.5 80.13 63.13c46 71.88 80.28 149.8 102 231C638.7 399.7 639.1 409.5 640 419.3z"/></svg>

<svg xmlns="http://www.w3.org/2000/svg" viewBox="0 0 640 512"><!-- Font Awesome Pro 6.0.0-alpha2 by @fontawesome - https://fontawesome.com License - https://fontawesome.com/license (Commercial License) --><path d="M640.001 419.336C640.176 470.217 596.965 511.041 546.092 511.957C524.385 512.348 521.954 510.348 455.126 492.5C412.876 481.125 383.876 445 383.876 403.875V343.83C383.876 331.064 398.092 323.439 408.727 330.502C413.192 333.467 415.876 338.471 415.876 343.832V403.875C415.876 430.25 435.376 454 463.376 461.5C527.876 478.75 529.501 480 541.876 480C578.376 480 608.001 453 608.001 419.75C608.001 412.5 607.001 405.375 605.126 398.375C584.376 320.25 551.251 245.5 507.001 176.375C479.251 132.5 474.876 128 453.876 128S415.876 143.125 415.876 161.75L415.995 266.117L504.594 322.5C512.047 327.25 514.251 337.125 509.501 344.594C506.454 349.375 501.266 352 495.985 352C493.047 352 490.079 351.188 487.407 349.5L320.001 242.969L152.594 349.5C145.079 354.25 135.235 352 130.501 344.594C125.751 337.125 127.954 327.25 135.407 322.5L224.022 266.107L224.126 161.75C224.126 143.125 207.126 128 186.126 128S160.751 132.5 133.001 176.375C88.751 245.5 55.626 320.25 34.876 398.375C33.001 405.375 32.001 412.625 32.001 419.75C32.001 453 61.626 480 98.126 480C110.501 480 112.126 478.75 176.626 461.5C204.626 454 224.126 430.25 224.126 403.875V343.832C224.126 338.471 226.809 333.467 231.274 330.502C241.909 323.439 256.126 331.064 256.126 343.83V403.875C256.126 445 227.126 481.125 184.876 492.5C118.047 510.348 115.616 512.348 93.909 511.957C43.036 511.041 -0.175 470.217 0.001 419.336C0.036 409.477 1.288 399.74 3.876 390.125C25.626 308.875 60.001 231 106 159.125C128.126 124.5 142 96 186.126 96C224.327 96 255.323 124.766 256.001 160.586V245.758L304.001 215.213V16C304.001 7.156 311.157 0 320.001 0S336.001 7.156 336.001 16V215.213L384.001 245.758V160.586C384.678 124.766 415.674 96 453.876 96C497.876 96 511.876 124.5 534 159.125C580.001 231 614.376 308.875 636.126 390.125C638.713 399.74 639.965 409.477 640.001 419.336Z"/></svg>
